!!!!SEGMENT: pl-sa--554-a-ix-34--013_anonim--andante.krn
!!!cenid: 18xx:575
!!!COM: Anonim
!!!COM-rismID: pe30004985
!!!CDT:
!!!CNT:
!!!OTL: Andante
!!!PDT:
!!!AGN: Secular
!!!YEC: Copyright 2022 Narodowy Instytut Fryderyka Chopina (https://polishscores.org)
!!!YEM: License CC-BY-4.0 (https://creativecommons.org/licenses/by/4.0)
!!!SMS-siglum: PL-SA
!!!SMS-shelfmark: 554/A IX 34
!!!SMS-shelfwork: 013 W
!!!SMS-variant:
!!!SMS-altvar:
!!!NIFC-rismSourceID: 1001069592
!!!NIFC-rismChildID: 1001069904
!!!NIFC-islandoraID: none
!!!URL-pdf-islandora:
!!!URL-scan: https://bc.bdsandomierz.pl/dlibra/publication/1310/edition/1278/content @EN{Scan in the Sandomierz Diocese Digital Library} @PL{Skany w portalu Cyfrowa Biblioteka Diecezjalna w Sandomierzu}
!!!IIIF:
!!!ONB-nifc: Str. 10 (s. 1-4)
!!!AIN: 1 empty 1 piano
!!!key:
**kern	**kern
*part2	*part1
*staff2	*staff1
*Ipiano	*Iempty
*I"Piano	*
*clefF4	*clefG2
*k[b-]	*k[b-]
*F:	*F:
*M6/8	*M6/8
!LO:TX:rj:a:i:t=Andante	!
8r	8cc\ 8a\
=1	=1
4F\ 4FF\	8cc\L 8a\
.	8ff\ 8cc\
8r	8cc\J 8a\
4F\ 4FF\	8a\L 8f\
.	8cc\ 8a\
8r	8a\J 8f\
=2	=2
8F\L	4.f/ 4.c/
8A\	.
8F\J	.
8E\L	4.g/ 4.e/
8C\	.
8E\J	.
=3	=3
4F\ 4FF\	8.a/L 8.f/
.	16b-/K 16g/
8F\ 8FF\	8cc/J 8a/
4E/ 4EE/	4b-/ 4g/
8F/ 8FF/	8a/ 8f/
=4	=4
*tremolo	*
*tremolo	*
!LO:SIC:o:s:=:v:nad nutą trzy kreseczki dookreślające tremolo	!
8C/ 8CC/L	8g/L 8e/ 8c/
8C/ 8CC/	16g/L
.	16f/
8C/ 8CC/J	16e/
.	16d/JJ
*Xtremolo	*
4C/ 4CC/	4c/
8r	8cc\ 8a\
=5	=5
4F/ 4FF/	8cc\L 8a\
.	8ff\ 8cc\
8r	8cc\J 8a\
4F/ 4FF/	8a\L 8f\
.	8cc\ 8a\
8r	8a\J 8f\
=6	=6
8F\L	4.f/ 4.c/
8A\	.
8F\J	.
8E\L	4.g/ 4.e/
8C\	.
8E\J	.
=7	=7
4F\ 4FF\	8a/L 8f/
.	8b-/ 8g/
8F\ 8FF\	8cc/J 8a/
4B-\ 4BB-\	8b-/L 8g/
.	8a/ 8f/
8c\ 8C\	8g/J 8e/
=8	=8
8F\L	8f/L 8c/ 8A/
8C\	8f/ 8c/ 8A/
8AA\J	8f/J 8c/ 8A/
4FF/	4f/ 4c/ 4A/
=:|!|:	=:|!|:
8r	8g/ 8e/
=9	=9
*tremolo	*
!LO:SIC:o:s:=:v:nad nutą trzy kreseczki dookreślające tremolo	!
8C/ 8CC/L	4g/ 4e/
8C/ 8CC/	.
8C/ 8CC/J	8f/ 8d/
!LO:SIC:o:s:=:v:nad nutą trzy kropki dookreślające tremolo	!
8C/ 8CC/L	4e/ 4c/
8C/ 8CC/	.
8C/ 8CC/J	8f/ 8d/
=10	=10
4.C/ 4.CC/	8g/L 8e/
.	16g/L 16e/
.	16b-/ 16g/
.	16a/ 16f/
.	16cc/JJ 16a/
4C/ 4CC/	8b-/ 8g/
.	8r
8r	8a/ 8c/
=11	=11
8F\L	4a/ 4c/
8C\	.
8AA\J	8g/ 8B-/
8FF/L	4f/ 4A/
8AA/	.
8C/J	8g/ 8B-/
=12	=12
!LO:SIC:o:s:=:v:pod nutą trzy kropki dookreślające tremolo	!
8F/ 8FF/L	8a/L 8f/
8F/ 8FF/	16a/L 16f/
.	16cc/ 16a/
8F/ 8FF/J	16b-/ 16g/
.	16dd/JJ 16b-/
*Xtremolo	*
4F/ 4FF/	8cc\ 8a\
.	8r
8r	8cc\ 8a\
!!LO:LB:g=original
=13	=13
4F/ 4FF/	8cc\L 8a\
.	8ff\ 8cc\
8r	8cc\J 8a\
4F/ 4FF/	8a\L 8f\
.	8cc\ 8a\
8r	8a\J 8f\
=14	=145
8F\L	4.f/ 4.c/
8A\	.
8F\J	.
8E\L	4.g/ 4.e/
8C\	.
8E\J	.
=15	=15
4F/ 4FF/	8a/L 8f/
.	8cc/
8A\ 8AA\	8f/J
4B-\ 4BB-\	8g/L 8e/
.	8b-/
8c\ 8C\	8e/J
=16	=16
!	!LO:SIC:o:s:=:v:nad nutą trzy kreseczki dookreślające tremolo
8F\L	4.f/ 4.c/ 4.A/
8C\	.
8AA\J	.
4FF/	4f/ 4c/ 4A/
=:|!|:	=:|!|:
8r	8cc\
=17	=17
4F\ 4FF\	8ff\L
.	8cc\
8r	8ff\J
4F\ 4FF\	8aa\L 8ff\
.	8ff\
8r	8aa\J 8ff\
=18	=18
8F\L	4.ccc\ 4.aa\ 4.ff\
8A\	.
8F\J	.
8E\L	4.bb-\ 4.gg\ 4.ee\ 4.cc\
8C\	.
8E\J	.
=19	=19
4F\ 4FF\	8aa\L 8ff\
.	8ff\
8r	8aa\J 8ff\
4F\ 4FF\	8ccc\L 8aa\
.	8bb-\ 8gg\
8r	8aa\J 8ff\
=20	=20
*	*tremolo
!	!LO:SIC:o:s:=:v:nad nutą trzy kreseczki dookreślające tremolo
8c\L	8gg\ 8ee\ 8cc\L
8G\	8gg\ 8ee\ 8cc\
8E\J	8gg\ 8ee\ 8cc\J
*	*Xtremolo
4C/	4gg\ 4ee\ 4cc\
8r	8cc\
=21	=21
4F\ 4FF\	8ff\L
.	8cc\
8r	8ff\J
4F\ 4FF\	8aa\L
.	8ff\
8r	8aa\J
=22	=22
8F\L	4.ccc\ 4.aa\ 4.ff\
8A\	.
8F\J	.
8E\L	4.bb-\ 4.gg\ 4.ee\ 4.cc\
8C\	.
8E\J	.
=23	=23
4F\ 4FF\	8aa\L 8ff\
.	8ccc\
8A\ 8AA\	8ff\J
4B-\ 4BB-\	8gg\L
.	8bb-\
8c\ 8C\	8ee\J
=24	=24
!	!LO:SIC:o:s:=:v:nad nutą trzy kropki dookreślające tremolo
8F\L	8ff\ 8cc\ 8a\L
8C\	8ff\ 8cc\ 8a\
8AA\J	8ff\ 8cc\ 8a\J
4FF/	4ff\ 4cc\ 4a\
*	*Xtremolo
=:|!|:	=:|!|:
8r	8gg\ 8ee\
=25	=25
4c\ 4C\	8gg\L 8ee\
.	8aa\
8r	8ff\J 8dd\
4c\ 4C\	8ee\L 8cc\
.	8ff\
8Bn\ 8BBn\	8dd\J 8b-\
=26	=26
4c\ 4C\	8cc\L
.	8ee\
8c\ 8C\	8gg\J
4E/ 4EE/	4bb-\ 4gg\
8F/ 8FF/	8aa\ 8ff\
=27	=27
4B-\ 4BB-\	8gg\L 8ee\
.	8aa\ 8ff\
8r	8bb-\J 8gg\
4B-\ 4BB-\	8bbn\L
.	16ccc\L
.	16bb\
8Bn\ 8BBn\	16aa\
.	16gg\JJ
!!LO:LB:g=original
=28	=28
8c\L	8ff\L
8G\	8ee\
8E\J	8ff\J
4C/	4ee\
8r	8cc\
=29	=29
4F\ 4FF\	8ff\L
.	8cc\
8r	8ff\J
4F\ 4FF\	8aa\L
.	8ff\
8r	8aa\J
=30	=30
8F\L	4.ccc\ 4.aa\ 4.ff\
8A\	.
8F\J	.
8E\L	4.bb-\ 4.gg\ 4.ee\ 4.cc\
8C\	.
8E\J	.
=31	=31
4F\ 4FF\	8aa\L
.	8ccc\
8A\ 8AA\	8ff\J
4B-\ 4BB-\	8gg\L
.	8bb-\
8c\ 8C\	8ee\J
=32	=32
*	*tremolo
!	!LO:SIC:o:s:=:v:nad nutą trzy kropki dookreślające tremolo
8F\L	8ff\ 8cc\ 8a\L
8C\	8ff\ 8cc\ 8a\
8AA\J	8ff\ 8cc\ 8a\J
4FF/	4ff\ 4cc\ 4a\
=:|!|:	=:|!|:
8r	8cc/ 8a/
=33	=33
4F\ 4FF\	8cc/L 8a/
.	8a/ 8f/
8r	8b-/J 8g/
4F\ 4FF\	8cc/L 8a/
.	8a/ 8f/
8r	8g/J 8e/
=34	=34
4F\ 4FF\	8f/L 8c/ 8A/
.	8g/ 8e/
8F\ 8FF\	8a/J 8f/
4C/ 4CC/	8g/L 8e/
.	8a/ 8f/
8C/ 8CC/	8b-/J 8g/
=35	=35
4F/ 4FF/	8a/L 8f/
!	!LO:TX:t=P:problem=mixed beam
.	8ff\ 8dd\
8r	8ee\J 8cc\
4B-\ 4BB-\	8dd\L 8b-\
.	8cc\ 8a\
8Bn\ 8BBn\	8b-\J 8g\
=36	=36
*tremolo	*
!LO:SIC:o:s:=:v:nad nutą trzy kropki dookreślające tremolo	!
8c\ 8C\L	4.a/ 4.f/
8c\ 8C\	.
8c\ 8C\J	.
*Xtremolo	*
4c\ 4C\	8g/ 8e/
.	4cc\ 4a\
8r	.
=37	=37
4F/ 4FF/	8cc/L 8a/
.	8a/ 8f/
8r	8b-/J 8g/
4F/ 4FF/	8cc/L 8a/
.	8a/ 8f/
8r	8g/J 8e/
=38	=38
4F/ 4FF/	8f/L 8c/ 8A/
.	8g/ 8e/
8F/ 8FF/	8a/J 8f/
4C/ 4CC/	8g/L 8e/
.	8a/ 8f/
8C/ 8CC/	8b-/J 8g/
=39	=39
4F\ 4FF\	8a/L 8f/
.	16a/L
.	16cc/
8B-\ 8BB-\	16b-/
.	16dd/JJ
4c\ 4C\	8cc/L
.	16cc/L
.	16a/
8c\ 8C\	16b-/
.	16g/JJ
=40	=40
!	!LO:SIC:o:s:=:v:pod nutą trzy kropki dookreślające tremolo
8F\L	8f/ 8c/ 8A/L
8C\	8f/ 8c/ 8A/
8AA\J	8f/ 8c/ 8A/J
*	*Xtremolo
4FF/	4f/ 4c/ 4A/
=:|!|:	=:|!|:
8r	8g/ 8e/
=41	=41
!LO:SIC:o:s:=:v:nad nutą trzy kreseczki dookreślające tremolo	!
*tremolo	*
8C/ 8CC/L	8g/L 8e/
8C/ 8CC/	8e/ 8c/
8C/ 8CC/J	8f/J 8d/
!!LO:LB:g=original
!LO:SIC:o:s:=:v:nad nutą trzy kropki dookreślające tremolo	!
8C/ 8CC/L	4g/ 4e/
8C/ 8CC/	.
8C/ 8CC/J	8a/ 8f/
=42	=42
!LO:SIC:o:s:=:v:nad nutą trzy kreseczki dookreślające tremolo	!
8C/ 8CC/L	16b-\LL
.	16a\
8C/ 8CC/	16dd\
.	16cc\
8C/ 8CC/J	16b-\
.	16a\JJ
!	!LO:N:vis=4
4C/ 4CC/	8g/
.	8r
8r	8a/ 8f/
=43	=43
!LO:SIC:o:s:=:v:nad nutą trzy kreseczki dookreślające tremolo	!
8F/ 8FF/L	8a/L 8f/
8F/ 8FF/	8f/ 8c/
8F/ 8FF/J	8g/J 8e/
!LO:SIC:o:s:=:v:nad nutą trzy kropki dookreślające tremolo	!
8F/ 8FF/L	4a/ 4f/
8F/ 8FF/	.
8F/ 8FF/J	8b-/ 8g/
*Xtremolo	*
=44	=44
4.F/ 4.FF/	16cc\LL
.	16a\
.	16ff\
.	16cc\
.	16a\
.	16f\JJ
4C/ 4EE/ 4CC/	4c/
8r	8ccc\
=45	=45
4F/ 4FF/	8ccc\L 8aa\
.	8aa\ 8ff\
8r	8bb-\J 8gg\
4F/ 4FF/	8ccc\L 8aa\
.	8aa\ 8ff\
8r	8gg\J 8ee\
=46	=46
4F/ 4FF/	8ff\L 8cc\ 8a\
.	8gg\ 8ee\
8F/ 8FF/	8aa\J 8ff\
4C/ 4CC/	8gg\L 8ee\
.	8gg\ 8ee\
8C/ 8CC/	8bb-\J 8gg\
=47	=47
8F\L	8aa\L 8ff\
8F\	16ccc\L
.	16aa\
8C\J	16bb-\
.	16gg\JJ
*rep	*
8F\L	8aa\L 8ff\
8F\	16aa\L
.	16ff\
8C\J	16gg\
.	16ee\JJ
*Xrep	*
=48	=48
8F\L	8ff\L 8cc\ 8a\
8C\	8ff\ 8cc\ 8a\
8AA\J	8ff\J 8cc\ 8a\
4FF/	4ff\ 4cc\ 4a\
==	==
*-	*-
!!!system-decoration: s1,s2
!!!EED: Leszek Kubiak
!!!EEV: 2020-12-14
!!!ENC: Mateusz Solarz
!!!END: 2020-06-19
